images/3233756.svg

<?xml version="1.0" encoding="UTF-8"?>
<svg xmlns="http://www.w3.org/2000/svg" xmlns:xlink="http://www.w3.org/1999/xlink" width="300pt" height="300pt" viewBox="0 0 300 300" version="1.1">
<defs>
<g>
<symbol overflow="visible" id="glyph0-0">
<path style="stroke:none;" d="M 0.546875 1.9375 L 0.546875 -7.75 L 6.046875 -7.75 L 6.046875 1.9375 Z M 1.171875 1.328125 L 5.4375 1.328125 L 5.4375 -7.140625 L 1.171875 -7.140625 Z M 1.171875 1.328125 "/>
</symbol>
<symbol overflow="visible" id="glyph0-1">
<path style="stroke:none;" d="M 1.078125 -8.015625 L 2.546875 -8.015625 L 6.09375 -1.3125 L 6.09375 -8.015625 L 7.15625 -8.015625 L 7.15625 0 L 5.6875 0 L 2.125 -6.703125 L 2.125 0 L 1.078125 0 Z M 1.078125 -8.015625 "/>
</symbol>
<symbol overflow="visible" id="glyph0-2">
<path style="stroke:none;" d="M 4.328125 -7.28125 C 3.546875 -7.28125 2.921875 -6.984375 2.453125 -6.390625 C 1.992188 -5.804688 1.765625 -5.007812 1.765625 -4 C 1.765625 -2.988281 1.992188 -2.1875 2.453125 -1.59375 C 2.921875 -1.007812 3.546875 -0.71875 4.328125 -0.71875 C 5.117188 -0.71875 5.742188 -1.007812 6.203125 -1.59375 C 6.660156 -2.1875 6.890625 -2.988281 6.890625 -4 C 6.890625 -5.007812 6.660156 -5.804688 6.203125 -6.390625 C 5.742188 -6.984375 5.117188 -7.28125 4.328125 -7.28125 Z M 4.328125 -8.171875 C 5.453125 -8.171875 6.351562 -7.789062 7.03125 -7.03125 C 7.707031 -6.28125 8.046875 -5.269531 8.046875 -4 C 8.046875 -2.738281 7.707031 -1.726562 7.03125 -0.96875 C 6.351562 -0.21875 5.453125 0.15625 4.328125 0.15625 C 3.203125 0.15625 2.300781 -0.21875 1.625 -0.96875 C 0.957031 -1.71875 0.625 -2.726562 0.625 -4 C 0.625 -5.269531 0.957031 -6.28125 1.625 -7.03125 C 2.300781 -7.789062 3.203125 -8.171875 4.328125 -8.171875 Z M 4.328125 -8.171875 "/>
</symbol>
</g>
</defs>
<g id="surface51929">
<rect x="0" y="0" width="300" height="300" style="fill:rgb(100%,100%,100%);fill-opacity:1;stroke:none;"/>
<path style="fill:none;stroke-width:1.2;stroke-linecap:butt;stroke-linejoin:miter;stroke:rgb(0%,0%,0%);stroke-opacity:1;stroke-miterlimit:10;" d="M 181.824219 198.578125 L 155.246094 197.882812 "/>
<path style="fill:none;stroke-width:1.2;stroke-linecap:butt;stroke-linejoin:miter;stroke:rgb(0%,0%,0%);stroke-opacity:1;stroke-miterlimit:10;" d="M 195.714844 175.90625 L 181.824219 198.578125 "/>
<path style="fill:none;stroke-width:1;stroke-linecap:butt;stroke-linejoin:miter;stroke:rgb(0%,0%,0%);stroke-opacity:1;stroke-miterlimit:10;" d="M 142.558594 174.515625 L 142.558594 174.515625 M 143.507812 177.359375 L 144.425781 176.863281 M 144.460938 180.207031 L 146.292969 179.210938 M 145.414062 183.050781 L 148.160156 181.558594 M 146.363281 185.894531 L 150.027344 183.90625 M 147.316406 188.742188 L 151.898438 186.253906 M 148.265625 191.585938 L 153.765625 188.601562 M 149.21875 194.429688 L 155.632812 190.949219 M 150.171875 197.277344 L 157.5 193.296875 M 151.121094 200.121094 L 159.367188 195.644531 "/>
<path style="fill:none;stroke-width:1.2;stroke-linecap:butt;stroke-linejoin:miter;stroke:rgb(0%,0%,0%);stroke-opacity:1;stroke-miterlimit:10;" d="M 142.558594 174.515625 L 126.371094 195.609375 "/>
<path style="fill:none;stroke-width:1.2;stroke-linecap:butt;stroke-linejoin:miter;stroke:rgb(0%,0%,0%);stroke-opacity:1;stroke-miterlimit:10;" d="M 142.558594 174.515625 L 156.449219 151.84375 "/>
<path style="fill:none;stroke-width:1.2;stroke-linecap:butt;stroke-linejoin:miter;stroke:rgb(0%,0%,0%);stroke-opacity:1;stroke-miterlimit:10;" d="M 127.496094 152.601562 L 142.558594 174.515625 "/>
<path style="fill:none;stroke-width:1.2;stroke-linecap:butt;stroke-linejoin:miter;stroke:rgb(0%,0%,0%);stroke-opacity:1;stroke-miterlimit:10;" d="M 126.371094 195.609375 L 101.308594 186.734375 "/>
<path style="fill:none;stroke-width:1.2;stroke-linecap:butt;stroke-linejoin:miter;stroke:rgb(0%,0%,0%);stroke-opacity:1;stroke-miterlimit:10;" d="M 101.308594 186.734375 L 101.65625 173.445312 "/>
<path style="fill:none;stroke-width:1.2;stroke-linecap:butt;stroke-linejoin:miter;stroke:rgb(0%,0%,100%);stroke-opacity:1;stroke-miterlimit:10;" d="M 101.65625 173.445312 L 102.003906 160.15625 "/>
<path style="fill:none;stroke-width:1.2;stroke-linecap:butt;stroke-linejoin:miter;stroke:rgb(0%,0%,100%);stroke-opacity:1;stroke-miterlimit:10;" d="M 102.003906 160.15625 L 114.75 156.378906 "/>
<path style="fill:none;stroke-width:1.2;stroke-linecap:butt;stroke-linejoin:miter;stroke:rgb(0%,0%,0%);stroke-opacity:1;stroke-miterlimit:10;" d="M 114.75 156.378906 L 127.496094 152.601562 "/>
<path style="fill:none;stroke-width:1.2;stroke-linecap:butt;stroke-linejoin:miter;stroke:rgb(0%,0%,100%);stroke-opacity:1;stroke-miterlimit:10;" d="M 102.003906 160.15625 L 91.457031 152.0625 "/>
<path style="fill:none;stroke-width:1.2;stroke-linecap:butt;stroke-linejoin:miter;stroke:rgb(0%,0%,0%);stroke-opacity:1;stroke-miterlimit:10;" d="M 91.457031 152.0625 L 80.910156 143.96875 "/>
<path style=" stroke:none;fill-rule:nonzero;fill:rgb(100%,100%,100%);fill-opacity:1;" d="M 98.003906 153.65625 L 106.003906 153.65625 L 106.003906 166.65625 L 98.003906 166.65625 Z M 98.003906 153.65625 "/>
<g style="fill:rgb(0%,0%,100%);fill-opacity:1;">
  <use xlink:href="#glyph0-1" x="98.003906" y="163.557617"/>
</g>
<path style="fill:none;stroke-width:1.2;stroke-linecap:butt;stroke-linejoin:miter;stroke:rgb(0%,0%,0%);stroke-opacity:1;stroke-miterlimit:10;" d="M 80.910156 143.96875 L 84.378906 117.609375 "/>
<path style="fill:none;stroke-width:1.2;stroke-linecap:butt;stroke-linejoin:miter;stroke:rgb(0%,0%,0%);stroke-opacity:1;stroke-miterlimit:10;" d="M 75.054688 140.515625 L 77.828125 119.429688 "/>
<path style="fill:none;stroke-width:1.2;stroke-linecap:butt;stroke-linejoin:miter;stroke:rgb(0%,0%,0%);stroke-opacity:1;stroke-miterlimit:10;" d="M 56.34375 154.144531 L 80.910156 143.96875 "/>
<path style="fill:none;stroke-width:1.2;stroke-linecap:butt;stroke-linejoin:miter;stroke:rgb(0%,0%,0%);stroke-opacity:1;stroke-miterlimit:10;" d="M 84.378906 117.609375 L 63.285156 101.421875 "/>
<path style="fill:none;stroke-width:1.2;stroke-linecap:butt;stroke-linejoin:miter;stroke:rgb(0%,0%,0%);stroke-opacity:1;stroke-miterlimit:10;" d="M 63.285156 101.421875 L 51.003906 106.511719 "/>
<path style="fill:none;stroke-width:1.2;stroke-linecap:butt;stroke-linejoin:miter;stroke:rgb(0%,0%,100%);stroke-opacity:1;stroke-miterlimit:10;" d="M 51.003906 106.511719 L 38.71875 111.597656 "/>
<path style="fill:none;stroke-width:1.2;stroke-linecap:butt;stroke-linejoin:miter;stroke:rgb(0%,0%,0%);stroke-opacity:1;stroke-miterlimit:10;" d="M 63.222656 108.21875 L 53.394531 112.289062 "/>
<path style="fill:none;stroke-width:1.2;stroke-linecap:butt;stroke-linejoin:miter;stroke:rgb(0%,0%,100%);stroke-opacity:1;stroke-miterlimit:10;" d="M 53.394531 112.289062 L 43.570312 116.359375 "/>
<path style="fill:none;stroke-width:1.2;stroke-linecap:butt;stroke-linejoin:miter;stroke:rgb(0%,0%,100%);stroke-opacity:1;stroke-miterlimit:10;" d="M 38.71875 111.597656 L 36.984375 124.777344 "/>
<path style="fill:none;stroke-width:1.2;stroke-linecap:butt;stroke-linejoin:miter;stroke:rgb(0%,0%,0%);stroke-opacity:1;stroke-miterlimit:10;" d="M 36.984375 124.777344 L 35.25 137.960938 "/>
<path style=" stroke:none;fill-rule:nonzero;fill:rgb(100%,100%,100%);fill-opacity:1;" d="M 34.71875 105.097656 L 42.71875 105.097656 L 42.71875 118.097656 L 34.71875 118.097656 Z M 34.71875 105.097656 "/>
<g style="fill:rgb(0%,0%,100%);fill-opacity:1;">
  <use xlink:href="#glyph0-1" x="34.71875" y="114.999023"/>
</g>
<path style="fill:none;stroke-width:1.2;stroke-linecap:butt;stroke-linejoin:miter;stroke:rgb(0%,0%,0%);stroke-opacity:1;stroke-miterlimit:10;" d="M 35.25 137.960938 L 56.34375 154.144531 "/>
<path style="fill:none;stroke-width:1.2;stroke-linecap:butt;stroke-linejoin:miter;stroke:rgb(0%,0%,0%);stroke-opacity:1;stroke-miterlimit:10;" d="M 41.167969 134.613281 L 58.042969 147.5625 "/>
<path style="fill:none;stroke-width:1.2;stroke-linecap:butt;stroke-linejoin:miter;stroke:rgb(0%,0%,0%);stroke-opacity:1;stroke-miterlimit:10;" d="M 156.449219 151.84375 L 169.738281 152.191406 "/>
<path style="fill:none;stroke-width:1.2;stroke-linecap:butt;stroke-linejoin:miter;stroke:rgb(0%,0%,100%);stroke-opacity:1;stroke-miterlimit:10;" d="M 169.738281 152.191406 L 183.027344 152.539062 "/>
<path style="fill:none;stroke-width:1.2;stroke-linecap:butt;stroke-linejoin:miter;stroke:rgb(0%,0%,100%);stroke-opacity:1;stroke-miterlimit:10;" d="M 183.027344 152.539062 L 189.371094 164.222656 "/>
<path style="fill:none;stroke-width:1.2;stroke-linecap:butt;stroke-linejoin:miter;stroke:rgb(0%,0%,0%);stroke-opacity:1;stroke-miterlimit:10;" d="M 189.371094 164.222656 L 195.714844 175.90625 "/>
<path style="fill:none;stroke-width:1.2;stroke-linecap:butt;stroke-linejoin:miter;stroke:rgb(0%,0%,100%);stroke-opacity:1;stroke-miterlimit:10;" d="M 183.027344 152.539062 L 189.976562 141.203125 "/>
<path style="fill:none;stroke-width:1.2;stroke-linecap:butt;stroke-linejoin:miter;stroke:rgb(0%,0%,0%);stroke-opacity:1;stroke-miterlimit:10;" d="M 189.976562 141.203125 L 196.921875 129.867188 "/>
<path style=" stroke:none;fill-rule:nonzero;fill:rgb(100%,100%,100%);fill-opacity:1;" d="M 179.027344 146.039062 L 187.027344 146.039062 L 187.027344 159.039062 L 179.027344 159.039062 Z M 179.027344 146.039062 "/>
<g style="fill:rgb(0%,0%,100%);fill-opacity:1;">
  <use xlink:href="#glyph0-1" x="179.027344" y="155.94043"/>
</g>
<path style="fill:none;stroke-width:1.2;stroke-linecap:butt;stroke-linejoin:miter;stroke:rgb(0%,0%,0%);stroke-opacity:1;stroke-miterlimit:10;" d="M 199.671875 128.375 L 193.328125 116.691406 "/>
<path style="fill:none;stroke-width:1.2;stroke-linecap:butt;stroke-linejoin:miter;stroke:rgb(100%,0%,0%);stroke-opacity:1;stroke-miterlimit:10;" d="M 193.328125 116.691406 L 186.984375 105.011719 "/>
<path style="fill:none;stroke-width:1.2;stroke-linecap:butt;stroke-linejoin:miter;stroke:rgb(0%,0%,0%);stroke-opacity:1;stroke-miterlimit:10;" d="M 194.171875 131.363281 L 187.828125 119.679688 "/>
<path style="fill:none;stroke-width:1.2;stroke-linecap:butt;stroke-linejoin:miter;stroke:rgb(100%,0%,0%);stroke-opacity:1;stroke-miterlimit:10;" d="M 187.828125 119.679688 L 181.484375 107.996094 "/>
<path style="fill:none;stroke-width:1.2;stroke-linecap:butt;stroke-linejoin:miter;stroke:rgb(0%,0%,0%);stroke-opacity:1;stroke-miterlimit:10;" d="M 196.921875 129.867188 L 223.5 130.5625 "/>
<path style=" stroke:none;fill-rule:nonzero;fill:rgb(100%,100%,100%);fill-opacity:1;" d="M 175.234375 100.003906 L 184.234375 100.003906 L 184.234375 113.003906 L 175.234375 113.003906 Z M 175.234375 100.003906 "/>
<g style="fill:rgb(100%,0%,0%);fill-opacity:1;">
  <use xlink:href="#glyph0-2" x="175.234375" y="109.905273"/>
</g>
<path style="fill:none;stroke-width:1.2;stroke-linecap:butt;stroke-linejoin:miter;stroke:rgb(0%,0%,0%);stroke-opacity:1;stroke-miterlimit:10;" d="M 223.5 130.5625 L 239.6875 109.46875 "/>
<path style="fill:none;stroke-width:1.2;stroke-linecap:butt;stroke-linejoin:miter;stroke:rgb(0%,0%,0%);stroke-opacity:1;stroke-miterlimit:10;" d="M 230.082031 132.261719 L 243.03125 115.386719 "/>
<path style="fill:none;stroke-width:1.2;stroke-linecap:butt;stroke-linejoin:miter;stroke:rgb(100%,0%,0%);stroke-opacity:1;stroke-miterlimit:10;" d="M 238.5625 152.476562 L 231.03125 141.519531 "/>
<path style="fill:none;stroke-width:1.2;stroke-linecap:butt;stroke-linejoin:miter;stroke:rgb(0%,0%,0%);stroke-opacity:1;stroke-miterlimit:10;" d="M 231.03125 141.519531 L 223.5 130.5625 "/>
<path style="fill:none;stroke-width:1.2;stroke-linecap:butt;stroke-linejoin:miter;stroke:rgb(0%,0%,0%);stroke-opacity:1;stroke-miterlimit:10;" d="M 239.6875 109.46875 L 264.75 118.34375 "/>
<path style="fill:none;stroke-width:1.2;stroke-linecap:butt;stroke-linejoin:miter;stroke:rgb(0%,0%,0%);stroke-opacity:1;stroke-miterlimit:10;" d="M 264.75 118.34375 L 264.054688 144.925781 "/>
<path style="fill:none;stroke-width:1.2;stroke-linecap:butt;stroke-linejoin:miter;stroke:rgb(0%,0%,0%);stroke-opacity:1;stroke-miterlimit:10;" d="M 258.425781 120.839844 L 257.871094 142.101562 "/>
<path style="fill:none;stroke-width:1.2;stroke-linecap:butt;stroke-linejoin:miter;stroke:rgb(0%,0%,0%);stroke-opacity:1;stroke-miterlimit:10;" d="M 264.054688 144.925781 L 251.308594 148.699219 "/>
<path style="fill:none;stroke-width:1.2;stroke-linecap:butt;stroke-linejoin:miter;stroke:rgb(100%,0%,0%);stroke-opacity:1;stroke-miterlimit:10;" d="M 251.308594 148.699219 L 238.5625 152.476562 "/>
<path style=" stroke:none;fill-rule:nonzero;fill:rgb(100%,100%,100%);fill-opacity:1;" d="M 234.5625 145.976562 L 243.5625 145.976562 L 243.5625 158.976562 L 234.5625 158.976562 Z M 234.5625 145.976562 "/>
<g style="fill:rgb(100%,0%,0%);fill-opacity:1;">
  <use xlink:href="#glyph0-2" x="234.5625" y="155.87793"/>
</g>
</g>
</svg>

<svg xmlns="http://www.w3.org/2000/svg" xmlns:xlink="http://www.w3.org/1999/xlink" width="300pt" height="300pt" viewBox="0 0 300 300"><defs><symbol overflow="visible"><path d="M.547 1.938V-7.75h5.5v9.688zm.625-.61h4.266v-8.47H1.171zm0 0"/></symbol><symbol overflow="visible" id="a"><path d="M1.078-8.016h1.47l3.546 6.704v-6.704h1.062V0H5.688L2.124-6.703V0H1.078zm0 0"/></symbol><symbol overflow="visible" id="b"><path d="M4.328-7.28c-.78 0-1.406.296-1.875.89-.46.585-.687 1.382-.687 2.39 0 1.012.226 1.813.687 2.406.47.586 1.094.875 1.875.875.79 0 1.414-.288 1.875-.874.457-.593.688-1.394.688-2.406 0-1.008-.23-1.805-.687-2.39-.46-.594-1.086-.89-1.875-.89zm0-.892c1.125 0 2.024.383 2.703 1.14C7.708-6.28 8.048-5.27 8.048-4c0 1.262-.34 2.273-1.016 3.03C6.353-.22 5.454.157 4.33.157S2.3-.22 1.625-.97c-.668-.75-1-1.757-1-3.03 0-1.27.332-2.28 1-3.03.676-.76 1.578-1.142 2.703-1.142zm0 0"/></symbol></defs><g><path fill="#fff" d="M0 0h300v300H0z"/><path d="M181.824 198.578l-26.578-.695M195.715 175.906l-13.89 22.672" stroke-width="1.2" stroke="#000" stroke-miterlimit="10" fill="none"/><path d="M142.56 174.516m.948 2.843l.918-.497m.035 3.344l1.833-.996m-.88 3.84l2.747-1.49m-1.797 4.335l3.664-1.99m-2.71 4.837l4.58-2.488m-3.63 5.332l5.5-2.984m-4.548 5.828l6.413-3.48m-5.46 6.327l7.327-3.98m-6.38 6.824l8.247-4.475" stroke="#000" stroke-miterlimit="10" fill="none"/><path d="M142.56 174.516l-16.19 21.093M142.56 174.516l13.89-22.672M127.496 152.602l15.063 21.914M126.37 195.61l-25.06-8.876M101.31 186.734l.346-13.29" stroke-width="1.2" stroke="#000" stroke-miterlimit="10" fill="none"/><path d="M101.656 173.445l.348-13.29M102.004 160.156l12.746-3.777" stroke-width="1.2" stroke="#00f" stroke-miterlimit="10" fill="none"/><path d="M114.75 156.38l12.746-3.778" stroke-width="1.2" stroke="#000" stroke-miterlimit="10" fill="none"/><path d="M102.004 160.156l-10.547-8.094" stroke-width="1.2" stroke="#00f" stroke-miterlimit="10" fill="none"/><path d="M91.457 152.063L80.91 143.97" stroke-width="1.2" stroke="#000" stroke-miterlimit="10" fill="none"/><path d="M98.004 153.656h8v13h-8zm0 0" fill="#fff"/><use xlink:href="#a" x="98.004" y="163.558" fill="#00f"/><path d="M80.91 143.97l3.47-26.36M75.055 140.516l2.773-21.086M56.344 154.145L80.91 143.97M84.38 117.61L63.284 101.42M63.285 101.422l-12.28 5.09" stroke-width="1.2" stroke="#000" stroke-miterlimit="10" fill="none"/><path d="M51.004 106.512l-12.285 5.086" stroke-width="1.2" stroke="#00f" stroke-miterlimit="10" fill="none"/><path d="M63.223 108.22l-9.828 4.07" stroke-width="1.2" stroke="#000" stroke-miterlimit="10" fill="none"/><path d="M53.395 112.29l-9.825 4.07M38.72 111.598l-1.736 13.18" stroke-width="1.2" stroke="#00f" stroke-miterlimit="10" fill="none"/><path d="M36.984 124.777L35.25 137.96" stroke-width="1.2" stroke="#000" stroke-miterlimit="10" fill="none"/><path d="M34.72 105.098h8v13h-8zm0 0" fill="#fff"/><use xlink:href="#a" x="34.719" y="114.999" fill="#00f"/><path d="M35.25 137.96l21.094 16.185M41.168 134.613l16.875 12.95M156.45 151.844l13.288.347" stroke-width="1.2" stroke="#000" stroke-miterlimit="10" fill="none"/><path d="M169.738 152.19l13.29.35M183.027 152.54l6.344 11.683" stroke-width="1.2" stroke="#00f" stroke-miterlimit="10" fill="none"/><path d="M189.37 164.223l6.345 11.683" stroke-width="1.2" stroke="#000" stroke-miterlimit="10" fill="none"/><path d="M183.027 152.54l6.95-11.337" stroke-width="1.2" stroke="#00f" stroke-miterlimit="10" fill="none"/><path d="M189.977 141.203l6.945-11.336" stroke-width="1.2" stroke="#000" stroke-miterlimit="10" fill="none"/><path d="M179.027 146.04h8v13h-8zm0 0" fill="#fff"/><use xlink:href="#a" x="179.027" y="155.94" fill="#00f"/><path d="M199.672 128.375l-6.344-11.684" stroke-width="1.2" stroke="#000" stroke-miterlimit="10" fill="none"/><path d="M193.328 116.69l-6.344-11.678" stroke-width="1.2" stroke="#f00" stroke-miterlimit="10" fill="none"/><path d="M194.172 131.363l-6.344-11.683" stroke-width="1.2" stroke="#000" stroke-miterlimit="10" fill="none"/><path d="M187.828 119.68l-6.344-11.684" stroke-width="1.2" stroke="#f00" stroke-miterlimit="10" fill="none"/><path d="M196.922 129.867l26.578.696" stroke-width="1.2" stroke="#000" stroke-miterlimit="10" fill="none"/><path d="M175.234 100.004h9v13h-9zm0 0" fill="#fff"/><use xlink:href="#b" x="175.234" y="109.905" fill="#f00"/><path d="M223.5 130.563l16.188-21.094M230.082 132.262l12.95-16.875" stroke-width="1.2" stroke="#000" stroke-miterlimit="10" fill="none"/><path d="M238.563 152.477l-7.532-10.957" stroke-width="1.2" stroke="#f00" stroke-miterlimit="10" fill="none"/><path d="M231.03 141.52l-7.53-10.958M239.688 109.47l25.062 8.874M264.75 118.344l-.695 26.582M258.426 120.84l-.555 21.262M264.055 144.926L251.31 148.7" stroke-width="1.2" stroke="#000" stroke-miterlimit="10" fill="none"/><path d="M251.31 148.7l-12.748 3.777" stroke-width="1.2" stroke="#f00" stroke-miterlimit="10" fill="none"/><path d="M234.563 145.977h9v13h-9zm0 0" fill="#fff"/><use xlink:href="#b" x="234.563" y="155.878" fill="#f00"/></g></svg>
